(
    MIDIClient.init;
)
(
    ~launchpadColor = (
        \off: 12,
        \redlo: 13,
        \redhi: 15,
        \amberlo: 29,
        \amberhi: 63,
        \yellow: 62,
        \greenlo: 28,
        \greenhi: 60
    )
)


~launchpadOut.noteOn(0, 0, 15);
MIDIClient.sources;
